X: 40059
T: Throw Away The Keys
R: reel
M: 4/4
K: Dmajor
AFAB defg|a2fd efdB|AFAB d2fe|dBAF EFD2:|
faaf defg|a2fd efd2|edef defe|dBAF EF D2|
faaf defg|a2fd efdB|AFAB d2fe|dBAF EFD2||

